X:433
T: Als der Heiland litt am Kreuze (4-29), S. 50
N: P0703
O: Lothringen
S: MERKELBACH-PINCK, Angelika: Verklingende Weisen, Bd 5, Kassel 1962]
R: geistliches, religises Lied]
M: 3/4
L: 1/8
K: E
=GA | B2B2=cB | BAA2
BA | =GAB2AG | F2z2
=GF | EF=GABB | A=GF2
GF | E=GF2ED | E4

@@@ Tune index: 7983
